X:104
T:Christ Arose
%%stretchlast false
M:4/4
L:1/4
K:G clef=C1
"^I"[G,GBd]2 [G,GBd] "^IV²"[G,Gce] | [G,Gce] "^I"[G,GBd] [G,GBd]2 | "^V"[D,FAd]2 "^V7"[D,FAc] "^V"[D,Fce] | "^IV²"[G,Gce]2 "^I"[G,GBd]2 | "^IV"[CGce]2 "^V"[CGdf] "^IV"[CGeg] | "^I¹"[B,Gdg] "^I"[G,GBd] [G,GBd]2 | "^vi¹"[G,GBe]2 "^V²"[A,FAd] "^II7"[A,EG^c] | "^V"[D,DFd]4 | "^i"[G,G] [G,G]3/4 [G,G]/4 "^iii"[B,B] "^v"[Dd]3/4 [Dd]/4 | "^I"[G,DBg] [G,DBg]3/4 [G,DBg]/4 [G,DBg] [G,GBg]3/4 "^ii7³"[G,Gca]/4 | "^I"[G,Gdb] "^I¹"[B,Gdg] "^ii7¹"[CGea]3/4 "^IV"[CGeg]/4 "^V"[CGdf]3/4 "^IV"[CGce]/4 | "^I"[G,GBd] [G,GBd]3/4 [G,GBd]/4 [G,GBd] "^V"[DAf]3/4 "^I²"[DBg]/4 | "^v7"[Dca] [Dca] [Dca]3/4 "^I²"[DBg]/4 "^v7"[Dca]3/4 "^iii¹"[Ddb]/4 | "^vi"[EGBg] "^IV"[CGce] "^I"[G,GBd] [G,GBd]3/4 [G,GBd]/4 | "^IV"[CGce] [CGce] "^II7"[A,G^ce]3/4 "^II"[A,E^ca]/4 [A,E^ca]3/4 "^V/V"[A,Aeg]/4 | "^V"[DAdf]/ "^V7"[DAcf]/ "^vi"[EGBg] "^V7"[DFca] "^i"[Gd]3/4 [Gd]/4 | "^I"[Gdb] [CGdb]3/4 [CGdb]/4 [CGdb] "^ii¹"[Cca]3/4 "^iv7"[CBg]/4 | "^IV"[Dec'] [DGec']3/4 [DGec']/4 [DGec'] "^I²"[DGdb]3/4 "^ii"[DEca]/4 | "^I"[G,DBg] [G,GBd] [G,Gdb] "^vii°7³"[G,Fca] | "^I"[GBg]4 |]
